X:104
T:Woodycock
C:John Playford, The English Dancing Master, 1651
N:arr. Jay Ter Louw. Matches Pile 2018
M:6/4
L:1/8
K:D minor
P:A
"Dm"d4d2 f3ed2 | "Am"c4A2 c4c2 | "Dm"d4d2 f3ed2 | [1 "Am"c2A2A2 A6 :| [2 "Am"c2A2A2 A4d2 |:\
P:B
"F"c4B2 c3BA2 | "Gm"B2G2G2 G4G2 | 
"Dm"A2A2A2 "Am"A3Bc2 | "Dm"d2D2D2 D4d2 | \
"F"c4B2 c3BA2 | "Gm"B2G2G2 G4G2 | "Dm"A2A2A2 A3Bc2 | "Dm"d2D2D2 D6 :| 
